X:1532
T:BLACK'S HORNPIPE
B:John of the Greeny Cheshire Way
N:© John Offord, Reproduced with permission
M:3/2
L:1/8
K:C
P:1
G4   E4   C4  | E2 G4 c2 B2 A2 | A3 G FGFE D4  | F2 A4 Bc dcBA ||
P:2
c3 d efed c4  | E2 G4 c2 B2 A2 | d3 e fgef d4  | F2 A4 c2 B2 A2||
P:3
cGEG cGEG cGEG| EF G4 c2 B2 A2 | dAFA dAFA dAFA| F2 A4 Bc dcBA |]


